X:1
T:Title
%%score 1 { 2 | 3 }
L:1/8
Q:1/4=105
M:4/4
K:A
V:1 treble nm="Grand Piano, Soprano"
V:2 bass nm="Choir Pad, Bucure?ti, LMD"
V:3 bass 
V:1
 [Ec]2 [Ec]>[Ec] [Ec]2 [Ec]2 | [Ee]2 [CA]2 [Ec]4 | [EB]2 [EB]>[Ec] [Ed]2 [EG]2 | %3
w: By~Anonim * * * *|||
 [EA]2 [EB]2 [Ec]4 | [Ec]2 [Ec]>[Ec] [Ec]2 [Ec]2 | [Ee]2 [CA]2 [Ec]4 | %6
w: |||
 [EB]2 [EB]>[Ec] [Ed]2 [DG]2 | [DB]2 [CA]2 [CA]4 | [DF]2 [DF]>[EG] [FA]2 [DF]2 | %9
w: |||
 [DF]2 [CE]2 [CE]4 | c2 c>B A2 G2 | F2 C2 F4 | [CE]2 [CE]>[CE] [CE]2 [EA]2 | [EG]2 [EA]2 [GB]4 | %14
w: |||||
 [Ec]2 [Ec]>[Ed] [Ee]2 [Fd]2 | [Ec]2 [DB]2 [CA]4- | [CA]4 z4 |] %17
w: |||
V:2
 A,2 A,>A, A,2 A,2 | C2 A,2 A,4 | G,2 G,>A, B,2 B,2 | A,2 G,2 A,4 | A,2 A,>A, A,2 A,2 | %5
 C2 A,2 A,4 | G,2 G,>A, B,2 B,2 | G,2 A,2 A,4 | A,2 A,>D D2 A,2 | A,2 A,2 A,4 | C2 C>B, A,2 G,2 | %11
 F,2 C,2 F,4 | A,2 A,>A, A,2[K:treble] C2 | B,2 C2 E4 | A,2[K:bass] A,>B, C2 A,2 | A,2 G,2 A,4- | %16
 A,4 z4 |] %17
V:3
 z8 | A,2 z2 z4 | E,2 E,>E, E,2 D,2 | C,2 B,,2 A,,4 | z8 | A,2 z2 z4 | E,2 E,>E, E,2 E,2 | %7
 E,2 A,,2 A,,4 | D,2 D,>D, D,2 D,2 | A,,2 A,,2 A,,4 | z8 | z8 | A,,2 A,,>A,, A,,2 A,,2 | %13
 E,2 E,2 E,4 | z2 z z/ A,/ A,2 D,2 | E,2 E,2 A,,4- | A,,4 z4 |] %17

